assets/svgs/youwe-logo-rgb-allwhite.svg

<?xml version="1.0" encoding="UTF-8"?>
<svg width="500px" height="500px" viewBox="0 0 500 500" version="1.1" xmlns="http://www.w3.org/2000/svg" xmlns:xlink="http://www.w3.org/1999/xlink">
    <!-- Generator: Sketch 53.2 (72643) - https://sketchapp.com -->
    <title>Brand Elements/Logo/Youwe/Off black</title>
    <desc>Created with Sketch.</desc>
    <g id="Brand-Elements/Logo/Youwe/Off-black" stroke="none" stroke-width="1" fill="none" fill-rule="evenodd">
        <g id="Logo" transform="translate(125.000000, 143.000000)">
            <path d="M34.8383152,169.899747 C37.7092391,169.899747 39.423913,171.927329 39.423913,174.500747 C39.423913,175.78881 38.8084239,176.956329 38.2038043,177.813684 L24.388587,196.521076 L24.388587,208.908696 C24.388587,211.547127 22.3097826,213.632949 19.6793478,213.632949 C17.0529891,213.632949 14.9755435,211.547127 14.9755435,208.908696 L14.9755435,196.705278 L1.16168478,177.874633 C0.489130435,176.956329 0,175.851114 0,174.500747 C0,171.986924 2.07744565,169.962051 4.70380435,169.962051 C6.8423913,169.962051 8.1875,171.12957 9.34782609,172.846987 L19.7377717,187.873038 L30.3125,172.725089 C31.4741848,171.006316 32.8804348,169.899747 34.8383152,169.899747 Z M66.6005435,169.597709 C79.8057065,169.597709 89.2785326,179.468797 89.2785326,191.677633 L89.2785326,191.796823 C89.2785326,204.004304 79.6807065,214 66.4796196,214 C53.2758152,214 43.8016304,204.126203 43.8016304,191.920076 L43.8016304,191.796823 C43.8016304,179.592051 53.3994565,169.597709 66.6005435,169.597709 Z M79.4361413,191.920076 L79.4361413,191.796823 C79.4361413,184.435494 74.0597826,178.305342 66.4796196,178.305342 C58.8994565,178.305342 53.6440217,184.314949 53.6440217,191.677633 L53.6440217,191.796823 C53.6440217,199.158152 59.0190217,205.291013 66.6005435,205.291013 C74.1793478,205.291013 79.4361413,199.281405 79.4361413,191.920076 Z M131.550272,169.964759 C134.182065,169.964759 136.26087,172.050582 136.26087,174.686304 L136.26087,194.558506 C136.26087,207.562392 128.982337,213.939051 117.493207,213.939051 C106.001359,213.939051 98.9755435,207.498734 98.9755435,194.865962 L98.9755435,174.686304 C98.9755435,172.050582 101.052989,169.964759 103.679348,169.964759 C106.309783,169.964759 108.388587,172.050582 108.388587,174.686304 L108.388587,194.618101 C108.388587,201.61238 111.870924,205.227354 117.616848,205.227354 C123.36413,205.227354 126.845109,201.732924 126.845109,194.924203 L126.845109,174.686304 C126.845109,172.050582 128.923913,169.964759 131.550272,169.964759 Z M202.533967,169.962051 C205.100543,169.962051 207.179348,171.927329 207.179348,174.500747 C207.179348,175.054709 206.993207,175.791519 206.809783,176.342772 L194.828804,210.074861 C193.971467,212.466785 192.203804,213.939051 189.940217,213.939051 L188.966033,213.939051 C186.702446,213.939051 184.987772,212.530443 184.13587,210.074861 L175.699728,185.479759 L167.262228,210.074861 C166.410326,212.530443 164.697011,213.939051 162.432065,213.939051 L161.456522,213.939051 C159.192935,213.939051 157.425272,212.466785 156.566576,210.074861 L144.586957,176.342772 C144.404891,175.791519 144.21875,175.118367 144.21875,174.564405 C144.21875,171.927329 146.421196,169.962051 149.050272,169.962051 C151.252717,169.962051 153.025815,171.374722 153.633152,173.335937 L162.129076,199.648456 L170.686141,173.579734 C171.41712,171.374722 173.07337,169.841506 175.455163,169.841506 L176.186141,169.841506 C178.574728,169.841506 180.222826,171.312418 180.955163,173.579734 L189.512228,199.648456 L198.009511,173.335937 C198.622283,171.49662 200.213315,169.962051 202.533967,169.962051 Z M244.475543,204.861658 C246.797554,204.861658 248.694293,206.763278 248.694293,209.092899 C248.694293,211.425228 246.797554,213.265899 244.475543,213.265899 L220.455163,213.265899 C217.830163,213.265899 215.75,211.180076 215.75,208.543 L215.75,175.054709 C215.75,172.416278 217.830163,170.333165 220.455163,170.333165 L244.169837,170.333165 C246.494565,170.333165 248.387228,172.234785 248.387228,174.564405 C248.387228,176.894025 246.494565,178.736051 244.169837,178.736051 L225.100543,178.736051 L225.100543,187.443684 L241.421196,187.443684 C243.741848,187.443684 245.63587,189.345304 245.63587,191.677633 C245.63587,194.005899 243.741848,195.845215 241.421196,195.845215 L225.100543,195.845215 L225.100543,204.861658 L244.475543,204.861658 Z" id="Combined-Shape" fill="#FFFFFF"></path>
            <path d="M236.001359,5.55587342 C249.096467,14.6535823 252.36413,32.6878228 243.296196,45.8298608 L201.724185,106.064089 C192.080163,120.037747 176.235054,128.351241 159.298913,128.351241 L116.168478,128.351241 C146.993207,83.6875443 195.86413,12.8738608 195.86413,12.8738608 C204.933424,-0.269531646 222.902174,-3.5445443 236.001359,5.55587342 Z M15.1100543,4.04839241 C28.2527174,-3.34002532 44.9673913,1.4668481 53.544837,13.8951013 L90.9076087,68.0316835 C98.15625,78.5366456 98.1644022,92.4507089 90.9266304,102.963797 L76.169837,124.401722 C72.1766304,130.200038 63.6372283,130.204101 59.6399457,124.409848 L5.40625,45.8298608 C-4.19021739,31.9130886 0.0326086957,12.5203544 15.1100543,4.04839241 Z M131.28125,44.3494684 C127.289402,50.1477848 118.751359,50.1532025 114.751359,44.3589494 L95.3410326,16.2314937 C90.7255435,9.54196203 95.4972826,0.406329114 103.603261,0.406329114 L142.377717,0.406329114 C150.480978,0.406329114 155.251359,9.53248101 150.64538,16.2220127 L131.28125,44.3494684 Z" id="Combined-Shape" fill="#FFFFFF"></path>
        </g>
    </g>
</svg>

<?xml version="1.0" encoding="utf-8"?>
<!-- Generator: Adobe Illustrator 27.0.0, SVG Export Plug-In . SVG Version: 6.00 Build 0)  -->
<svg version="1.1" id="Layer_1" xmlns="http://www.w3.org/2000/svg" xmlns:xlink="http://www.w3.org/1999/xlink" x="0px" y="0px"
	 viewBox="0 0 500 500" style="enable-background:new 0 0 500 500;" xml:space="preserve">
<style type="text/css">
	.st0{fill-rule:evenodd;clip-rule:evenodd;fill:#FFFFFF;}
</style>
<g transform="translate(125 143)">
	<path class="st0" d="M34.8,169.9c2.9,0,4.6,2,4.6,4.6c0,1.3-0.6,2.5-1.2,3.3l-13.8,18.7v12.4c0,2.6-2.1,4.7-4.7,4.7
		c-2.6,0-4.7-2.1-4.7-4.7v-12.2L1.2,177.9c-0.7-0.9-1.2-2-1.2-3.4c0-2.5,2.1-4.5,4.7-4.5c2.1,0,3.5,1.2,4.6,2.9l10.4,15l10.6-15.1
		C31.5,171,32.9,169.9,34.8,169.9z M66.6,169.6c13.2,0,22.7,9.9,22.7,22.1v0.1c0,12.2-9.6,22.2-22.8,22.2
		c-13.2,0-22.7-9.9-22.7-22.1v-0.1C43.8,179.6,53.4,169.6,66.6,169.6L66.6,169.6z M79.4,191.9v-0.1c0-7.4-5.4-13.5-13-13.5
		s-12.8,6-12.8,13.4v0.1c0,7.4,5.4,13.5,13,13.5C74.2,205.3,79.4,199.3,79.4,191.9L79.4,191.9z M131.6,170c2.6,0,4.7,2.1,4.7,4.7
		v19.9c0,13-7.3,19.4-18.8,19.4c-11.5,0-18.5-6.4-18.5-19.1v-20.2c0-2.6,2.1-4.7,4.7-4.7c2.6,0,4.7,2.1,4.7,4.7v19.9
		c0,7,3.5,10.6,9.2,10.6c5.7,0,9.2-3.5,9.2-10.3v-20.2C126.8,172.1,128.9,170,131.6,170L131.6,170z M202.5,170c2.6,0,4.6,2,4.6,4.5
		c0,0.6-0.2,1.3-0.4,1.8l-12,33.7c-0.9,2.4-2.6,3.9-4.9,3.9h-1c-2.3,0-4-1.4-4.8-3.9l-8.4-24.6l-8.4,24.6c-0.9,2.5-2.6,3.9-4.8,3.9
		h-1c-2.3,0-4-1.5-4.9-3.9l-12-33.7c-0.2-0.6-0.4-1.2-0.4-1.8c0-2.6,2.2-4.6,4.8-4.6c2.2,0,4,1.4,4.6,3.4l8.5,26.3l8.6-26.1
		c0.7-2.2,2.4-3.7,4.8-3.7h0.7c2.4,0,4,1.5,4.8,3.7l8.6,26.1l8.5-26.3C198.6,171.5,200.2,170,202.5,170L202.5,170z M244.5,204.9
		c2.3,0,4.2,1.9,4.2,4.2c0,2.3-1.9,4.2-4.2,4.2h-24c-2.6,0-4.7-2.1-4.7-4.7v-33.5c0-2.6,2.1-4.7,4.7-4.7h23.7c2.3,0,4.2,1.9,4.2,4.2
		s-1.9,4.2-4.2,4.2h-19.1v8.7h16.3c2.3,0,4.2,1.9,4.2,4.2c0,2.3-1.9,4.2-4.2,4.2h-16.3v9L244.5,204.9z"/>
	<path class="st0" d="M236,5.6c13.1,9.1,16.4,27.1,7.3,40.3l-41.6,60.2c-9.6,14-25.5,22.3-42.4,22.3h-43.1
		C147,83.7,195.9,12.9,195.9,12.9C204.9-0.3,222.9-3.5,236,5.6L236,5.6z M15.1,4C28.3-3.3,45,1.5,53.5,13.9L90.9,68
		c7.2,10.5,7.3,24.4,0,34.9l-14.8,21.4c-4,5.8-12.5,5.8-16.5,0L5.4,45.8C-4.2,31.9,0,12.5,15.1,4z M131.3,44.3
		c-4,5.8-12.5,5.8-16.5,0L95.3,16.2c-4.6-6.7,0.2-15.8,8.3-15.8h38.8c8.1,0,12.9,9.1,8.3,15.8L131.3,44.3z"/>
</g>
</svg>
